X:33
T:Lipstick and Invitations
F:Lipstick_and_Invitations
R:rant
C:Simon Dew
M:2/2
L:1/8
Q:1/2=110
K:G
P:A
"G"G2g2 f2e2|"Gsus4"d2c2 AcBA|"Gsus2"G2Bc dBce|d2c2 A4|
"G"G2g2 f2e2|"Gsus4"d2c2 AcBA|"Gsus2"G2Bc dBce|dBcA G4:|
P:B
|:"Am"E2GB e2d2|"Bm"dcAc B2G2|"C"E2GB e2d2|"D"dcAF "Em"G4|
"Am"E2GB e2d2-|"Bm"dcAc B2G2-|"C"G2Bc dBce|"D"dBcA "G"G4:|

